X: 199
T: Shuj Shuj Zemer
O: Israel (Alabania)
Z: https://www.youtube.com/watch?v=LQFCR7vNUbM
M: 2/4
L: 1/8
K: Em
Q: 1/4=150
E2 B2|AG FE|\
D2 A2|GF ED|\
E2 B2|AG FE|\
D2 A2|GF ED::
Ez EE|B,B, B,z|\
Dz DE|FE/D/ Ez|\
Ez EE|B,B, B,z|\
Dz DE|FE/D/ Ez::
ED EF|GF GA|\
zF FF|FE/D/ Ez|\
ED EF|GF GA|\
zF FF|FE/D/ Ez:|


